apps/web/src/images/integrations/logo-microsoft-entra-id-color.svg

<svg width="600" height="600" fill="none" xmlns="http://www.w3.org/2000/svg"><path d="M126.732 467.734c12.934 8.066 34.434 17.033 57.167 17.033 20.7 0 39.933-6 55.867-16.233 0 0 .033 0 .066-.034l60.167-37.6v135.767c-9.533 0-19.133-2.6-27.467-7.8l-145.8-91.133Z" fill="#225086"/><path d="m261.767 50.234-250 282c-19.3 21.8-14.267 54.733 10.766 70.367 0 0 92.534 57.833 104.2 65.133 12.934 8.067 34.434 17.033 57.167 17.033 20.7 0 39.933-6 55.867-16.233 0 0 .033 0 .066-.033l60.167-37.6-145.467-90.934 145.5-164.133v-142.5c-14.133 0-28.266 5.633-38.266 16.9Z" fill="#6DF"/><path d="m154.533 339.967 1.734 1.067L300 430.901h.033V175.867l-.033-.033-145.467 164.133Z" fill="#CBF8FF"/><path d="M577.468 402.6c25.034-15.633 30.067-48.567 10.767-70.367L424.202 147.2a103.399 103.399 0 0 0-43.767-9.7c-30.833 0-58.4 13.3-76.733 34.2l-3.634 4.1 145.467 164.133-145.5 90.934v135.766c9.567 0 19.1-2.6 27.433-7.8l250-156.266v.033Z" fill="#074793"/><path d="M300.033 33.334v142.5l3.634-4.1c18.333-20.9 45.9-34.2 76.733-34.2 15.733 0 30.533 3.567 43.767 9.7L338.2 50.267c-9.967-11.266-24.1-16.9-38.2-16.9l.033-.033Z" fill="#0294E4"/><path d="m445.502 339.967-145.467-164.1v255l145.467-90.9Z" fill="#96BCC2"/></svg>

<svg width="600" height="600" viewBox="0 0 600 600" fill="none" xmlns="http://www.w3.org/2000/svg">
<path d="M126.732 467.734C139.666 475.8 161.166 484.767 183.899 484.767C204.599 484.767 223.832 478.767 239.766 468.534C239.766 468.534 239.799 468.534 239.832 468.5L299.999 430.9V566.667C290.466 566.667 280.866 564.067 272.532 558.867L126.732 467.734Z" fill="#225086"/>
<path d="M261.767 50.234L11.7665 332.234C-7.53346 354.034 -2.50012 386.967 22.5332 402.601C22.5332 402.601 115.067 460.434 126.733 467.734C139.667 475.801 161.167 484.767 183.9 484.767C204.6 484.767 223.833 478.767 239.767 468.534C239.767 468.534 239.8 468.534 239.833 468.501L300 430.901L154.533 339.967L300.033 175.834V33.334C285.9 33.334 271.767 38.9673 261.767 50.234Z" fill="#66DDFF"/>
<path d="M154.533 339.967L156.267 341.034L300 430.901H300.033V175.867L300 175.834L154.533 339.967Z" fill="#CBF8FF"/>
<path d="M577.468 402.6C602.502 386.967 607.535 354.033 588.235 332.233L424.202 147.2C410.968 141.033 396.135 137.5 380.435 137.5C349.602 137.5 322.035 150.8 303.702 171.7L300.068 175.8L445.535 339.933L300.035 430.867V566.633C309.602 566.633 319.135 564.033 327.468 558.833L577.468 402.567V402.6Z" fill="#074793"/>
<path d="M300.033 33.334V175.834L303.667 171.734C322 150.834 349.567 137.534 380.4 137.534C396.133 137.534 410.933 141.101 424.167 147.234L338.2 50.2673C328.233 39.0007 314.1 33.3673 300 33.3673L300.033 33.334Z" fill="#0294E4"/>
<path d="M445.502 339.967L300.035 175.867V430.867L445.502 339.967Z" fill="#96BCC2"/>
</svg>
